src/assets/Correct-tick.svg

<svg width="30" height="30" viewBox="0 0 30 30" fill="none" xmlns="http://www.w3.org/2000/svg">
<path fill-rule="evenodd" clip-rule="evenodd" d="M29.5151 13.4159L28.3836 11.7349C28.2866 11.5409 28.2543 11.347 28.2543 11.1207L28.3836 9.08405C28.4483 7.92026 27.8341 6.85345 26.7996 6.33621L24.9892 5.43103C24.7953 5.33405 24.6659 5.20474 24.569 5.01078L23.6638 3.20043C23.1466 2.16595 22.0474 1.55172 20.916 1.61638L18.8793 1.74569C18.6853 1.74569 18.4591 1.71336 18.2974 1.58405L16.6164 0.484914C15.6466 -0.161638 14.4181 -0.161638 13.4483 0.484914L11.7672 1.61638C11.5409 1.71336 11.347 1.74569 11.1207 1.74569L9.08405 1.61638C7.92026 1.55172 6.85345 2.16595 6.33621 3.20043L5.43103 5.01078C5.33405 5.20474 5.20474 5.33405 5.01078 5.43103L3.20043 6.33621C2.16595 6.85345 1.55172 7.95259 1.61638 9.08405L1.74569 11.1207C1.74569 11.3147 1.71336 11.5409 1.58405 11.7026L0.484914 13.3836C-0.161638 14.3534 -0.161638 15.6142 0.484914 16.5517L1.61638 18.2328C1.71336 18.4591 1.74569 18.653 1.74569 18.8793L1.61638 20.916C1.55172 22.0797 2.16595 23.1466 3.20043 23.6638L5.01078 24.569C5.20474 24.6659 5.33405 24.8276 5.43103 24.9892L6.33621 26.7996C6.85345 27.8341 7.95259 28.4483 9.08405 28.3836L11.1207 28.2543C11.3147 28.2543 11.5409 28.2866 11.7026 28.4159L13.3836 29.5151C13.8685 29.8384 14.4181 30 14.9677 30C15.5172 30 16.0668 29.8384 16.5517 29.5151L18.2328 28.3836C18.3944 28.2866 18.6207 28.222 18.8147 28.222L20.8513 28.3513C22.0151 28.416 23.0819 27.8017 23.5991 26.7672L24.5043 24.9569C24.6013 24.7629 24.7306 24.6336 24.9246 24.5366L26.7349 23.6315C27.7694 23.1142 28.3836 22.0151 28.319 20.8836L28.2543 18.8793C28.2543 18.6853 28.2866 18.4591 28.4159 18.2974L29.5151 16.5841C30.1616 15.6142 30.1616 14.3534 29.5151 13.4159Z" fill="#3DD598"/>
<path d="M19.4675 10.2803C19.7601 9.94555 20.2765 9.90485 20.6208 10.1894C20.9651 10.4739 21.0069 10.9759 20.7143 11.3106L13.7597 19.2651C13.4625 19.6051 12.9358 19.641 12.5928 19.3445L8.91095 16.1627C8.57322 15.8708 8.5428 15.368 8.843 15.0397C9.14321 14.7113 9.66036 14.6818 9.99809 14.9736L13.0547 17.6151L19.4675 10.2803Z" fill="white" stroke="white" stroke-width="2"/>
</svg>

<svg xmlns="http://www.w3.org/2000/svg" width="30" height="30" fill="none"><path fill="#3DD598" fill-rule="evenodd" d="m29.515 13.416-1.131-1.681a1.312 1.312 0 0 1-.13-.614l.13-2.037A2.869 2.869 0 0 0 26.8 6.336l-1.81-.905a.884.884 0 0 1-.421-.42l-.905-1.81a2.9 2.9 0 0 0-2.748-1.585l-2.037.13c-.194 0-.42-.033-.582-.162l-1.68-1.1a2.83 2.83 0 0 0-3.169 0l-1.68 1.132a1.54 1.54 0 0 1-.647.13l-2.037-.13A2.869 2.869 0 0 0 6.336 3.2l-.905 1.81a.884.884 0 0 1-.42.421l-1.81.905a2.9 2.9 0 0 0-1.585 2.748l.13 2.037c0 .194-.033.42-.162.582l-1.1 1.68c-.646.97-.646 2.231 0 3.169l1.132 1.68c.097.227.13.421.13.647l-.13 2.037A2.869 2.869 0 0 0 3.2 23.664l1.81.905c.195.097.324.259.421.42l.905 1.81a2.9 2.9 0 0 0 2.748 1.585l2.037-.13c.194 0 .42.033.582.162l1.68 1.1a2.85 2.85 0 0 0 1.585.484c.55 0 1.099-.162 1.584-.485l1.68-1.131a1.21 1.21 0 0 1 .583-.162l2.036.13a2.869 2.869 0 0 0 2.748-1.585l.905-1.81a.884.884 0 0 1 .42-.42l1.81-.905a2.9 2.9 0 0 0 1.585-2.748l-.065-2.005c0-.194.033-.42.162-.582l1.1-1.713c.646-.97.646-2.23 0-3.168Z" clip-rule="evenodd"/><path fill="#fff" stroke="#fff" stroke-width="2" d="M19.468 10.28a.834.834 0 0 1 1.153-.09.78.78 0 0 1 .093 1.12l-6.954 7.955a.834.834 0 0 1-1.167.08L8.91 16.163a.78.78 0 0 1-.068-1.123.835.835 0 0 1 1.155-.066l3.057 2.641 6.413-7.335Z"/></svg>
